X:124
T:Cardinal, The
M:2/4
L:1/8
B:Thompson's Compleat Collection of 200 Favourite Country Dances, vol. 1 (London, 1757)
Z:Transcribed and edited by Flynn Titford-Mock, 2007
Z:abc's:AK/Fiddler's Companion
K:G
c|{c}"tr"B>AGB|ceec|{c}"tr"B>AGB|ADDc|BAGB|cegc|BGAF|G[G,G] [G,G]:|
|:g|{g}"tr"f>edf|gafg|{g}"tr"f>edf|aAAc|{c}B>AGB|cegc|BGAF|G[G,G] [G,G]:|

